X:743
T:Skön Anna
R:Visa
O:Västervik, Småland
S:Efter C E Södling
Z:Jonas Brunskog 9/11 2008
N:[[http://www.smus.se/earkiv/fmk/browselarge.php?lang=sw&katalogid=Upprop+23d&bildnr=00006|SMUS Upprop 23d]] samt
N:[[http://www.smus.se/earkiv/fmk/browselarge.php?lang=sw&katalogid=Upprop+26c&bildnr=00006&max=1|SMUS Upprop 26c]]
M:C
L:1/8
K:Ddor
A,|D2 F> G A2 B2|c2 B>c A2> E2|F2 G2 A> B c> A| G4 A2 z E|
w:Skön An-na hon går till sjö-a--strand, och där spat-se-rar hon så vi-da. Till
F2 A F G2 E2|F> A G> F E2> C2|D> E F> D E>D C> A,|D4 D2 z2||
w:hen-ne så kom en fa-ger ung-er man, han häl-sa-de på hen--ne så bli-da.
(:musicend:)

(:music:)
